Dominus_Dark_Funeral/22/apps/vlc.svg

<svg xmlns="http://www.w3.org/2000/svg" width="24" height="24"><defs><linearGradient id="b"><stop offset="0"/><stop offset="1" stop-opacity="0"/></linearGradient><linearGradient id="a"><stop offset="0" stop-color="#e26400"/><stop offset="1" stop-color="#ffb900"/></linearGradient></defs><path class="ColorScheme-Text" d="M11.95 1h-.02c-.95 0-1.6.27-1.68.63-.05.08-.11.15-.14.24l-.88 4.36c1.33.96 4.21.96 5.54 0l-.88-4.36c-.01-.02-.03-.03-.03-.05V1.8c0-.11-.08-.22-.2-.33a.97.97 0 0 0-.39-.25C12.87 1.09 12.44 1 12 1zm-3.86 9.08l-.9 3.02H5.75a.96.96 0 0 0-.88.6l-2.41 7.97A.96.96 0 0 0 3.34 23h17.32c.69 0 1.15-.7.89-1.33l-2.4-7.98a.96.96 0 0 0-.9-.59H16.8l-.9-3.02c-2.64 1.05-4.86 1.32-7.8 0zm8.85 3.49l.8 2.68a.96.96 0 0 1-.42 1.09 10.57 10.57 0 0 1-5.36 1.4 9.19 9.19 0 0 1-5.32-1.43.96.96 0 0 1-.37-1.06l.75-2.56c1.04.6 5.73 2.41 9.92-.12z" fill-rule="evenodd" fill="#e6e6e6"/></svg>

<?xml version="1.0" encoding="UTF-8" standalone="no"?>
<svg
   xmlns:dc="http://purl.org/dc/elements/1.1/"
   xmlns:cc="http://creativecommons.org/ns#"
   xmlns:rdf="http://www.w3.org/1999/02/22-rdf-syntax-ns#"
   xmlns:svg="http://www.w3.org/2000/svg"
   xmlns="http://www.w3.org/2000/svg"
   xmlns:sodipodi="http://sodipodi.sourceforge.net/DTD/sodipodi-0.dtd"
   xmlns:inkscape="http://www.inkscape.org/namespaces/inkscape"
   width="24"
   height="24"
   version="1.1"
   id="svg16"
   sodipodi:docname="vlc.svg"
   inkscape:version="0.92.4 (5da689c313, 2019-01-14)">
  <metadata
     id="metadata20">
    <rdf:RDF>
      <cc:Work
         rdf:about="">
        <dc:format>image/svg+xml</dc:format>
        <dc:type
           rdf:resource="http://purl.org/dc/dcmitype/StillImage" />
        <dc:title></dc:title>
      </cc:Work>
    </rdf:RDF>
  </metadata>
  <sodipodi:namedview
     pagecolor="#ffffff"
     bordercolor="#666666"
     borderopacity="1"
     objecttolerance="10"
     gridtolerance="10"
     guidetolerance="10"
     inkscape:pageopacity="0"
     inkscape:pageshadow="2"
     inkscape:window-width="1138"
     inkscape:window-height="480"
     id="namedview18"
     showgrid="false"
     inkscape:zoom="9.8333333"
     inkscape:cx="1.0677966"
     inkscape:cy="12"
     inkscape:window-x="0"
     inkscape:window-y="25"
     inkscape:window-maximized="0"
     inkscape:current-layer="svg16" />
  <defs
     id="defs12">
    <linearGradient
       id="b">
      <stop
         offset="0"
         id="stop2" />
      <stop
         offset="1"
         stop-opacity="0"
         id="stop4" />
    </linearGradient>
    <linearGradient
       id="a">
      <stop
         offset="0"
         stop-color="#e26400"
         id="stop7" />
      <stop
         offset="1"
         stop-color="#ffb900"
         id="stop9" />
    </linearGradient>
  </defs>
  <path
     class="ColorScheme-Text"
     d="M 11.95,1 H 11.93 C 10.98,1 10.33,1.27 10.25,1.63 10.2,1.71 10.14,1.78 10.11,1.87 L 9.23,6.23 c 1.33,0.96 4.21,0.96 5.54,0 L 13.89,1.87 C 13.88,1.85 13.86,1.84 13.86,1.82 V 1.8 c 0,-0.11 -0.08,-0.22 -0.2,-0.33 A 0.97,0.97 0 0 0 13.27,1.22 C 12.87,1.09 12.44,1 12,1 Z M 8.09,10.08 7.19,13.1 H 5.75 A 0.96,0.96 0 0 0 4.87,13.7 L 2.46,21.67 A 0.96,0.96 0 0 0 3.34,23 h 17.32 c 0.69,0 1.15,-0.7 0.89,-1.33 l -2.4,-7.98 A 0.96,0.96 0 0 0 18.25,13.1 H 16.8 l -0.9,-3.02 c -2.64,1.05 -4.86,1.32 -7.8,0 z m 8.85,3.49 0.8,2.68 a 0.96,0.96 0 0 1 -0.42,1.09 10.57,10.57 0 0 1 -5.36,1.4 9.19,9.19 0 0 1 -5.32,-1.43 0.96,0.96 0 0 1 -0.37,-1.06 l 0.75,-2.56 c 1.04,0.6 5.73,2.41 9.92,-0.12 z"
     id="path14"
     inkscape:connector-curvature="0"
     style="fill:#e6e6e6;fill-rule:evenodd" />
</svg>
